X:170
T:A Dh\`omhnuill, A Dh\`omnhuill
R:Reel
B:The Athole Collection
M:C|
L:1/8
K:G
D|G2Gc Bdde|dBGB AFED|G2Gc Bdde|dBAB G/G/G G:|
f|gfed e/e/e g2|gfed eBBf|gfed e/e/e g2|dBAB G2Gf|
gfed e/e/e g2|gfed eBBf|gfed efga|bagf g2gb||

